X: 9
T:Gnglat frn pplebo
M:4/4
L:1/8
C:Trad. Swedish
K:G
D2|G3DG2B2|d6 Bc|d2dc d2de|c2cBA2AB|c2cde2dc|BcBAG2FG|ABAG D2EF|G6:|!Bd|
g2g2g2fe|f2f2f2gf|e2e2egfe|e2d^cd2cB|c2cBA2GA|BcBAG2FG|ABAGD2EF|G6:|
% This is the Harmony Part for the above tune.
|:"Harmony Part"B,2|D3B,D2G2|G6GA|B2BGB2Bc|A2AGF2FG|A2ABc2BA|GAGDB,2DE|F
2FFC2C2|B,6:|!
|:DG|B2B2B2dd|d2A2D2D2|c2G2cedc|c2BAB2AG|A2AGF2B,D|GAGDB,2DE|F2F2C2C2|B,
6:|
